img/footer_message2.svg

<svg width="16" height="16" viewBox="0 0 16 16" fill="none" xmlns="http://www.w3.org/2000/svg">
<path d="M11.2335 0H4.76649C2.13823 0 0 2.13823 0 4.76649V11.2335C0 13.8618 2.13823 16 4.76649 16H11.2335C13.8618 16 16 13.8618 16 11.2335V4.76649C16 2.13823 13.8617 0 11.2335 0ZM14.3904 11.2335C14.3904 12.977 12.977 14.3904 11.2335 14.3904H4.76649C3.023 14.3904 1.6096 12.977 1.6096 11.2335V4.76649C1.6096 3.02297 3.023 1.6096 4.76649 1.6096H11.2335C12.977 1.6096 14.3904 3.02297 14.3904 4.76649V11.2335Z" fill="#FC6733"/>
<path d="M8.00047 3.86133C5.71868 3.86133 3.8623 5.71771 3.8623 7.99947C3.8623 10.2812 5.71868 12.1376 8.00047 12.1376C10.2823 12.1376 12.1386 10.2813 12.1386 7.99947C12.1386 5.71768 10.2823 3.86133 8.00047 3.86133ZM8.00047 10.5281C6.60397 10.5281 5.4719 9.396 5.4719 7.9995C5.4719 6.603 6.604 5.47093 8.00047 5.47093C9.39698 5.47093 10.529 6.603 10.529 7.9995C10.529 9.39597 9.39695 10.5281 8.00047 10.5281Z" fill="#FC6733"/>
<path d="M12.1468 4.88449C12.6945 4.88449 13.1384 4.44055 13.1384 3.89293C13.1384 3.3453 12.6945 2.90137 12.1468 2.90137C11.5992 2.90137 11.1553 3.3453 11.1553 3.89293C11.1553 4.44055 11.5992 4.88449 12.1468 4.88449Z" fill="#FC6733"/>
</svg>

<svg width="16" height="16" viewBox="0 0 16 16" fill="none" xmlns="http://www.w3.org/2000/svg"><path d="M11.233 0H4.766A4.772 4.772 0 0 0 0 4.766v6.467A4.772 4.772 0 0 0 4.766 16h6.467A4.772 4.772 0 0 0 16 11.233V4.766A4.772 4.772 0 0 0 11.233 0zm3.157 11.233a3.157 3.157 0 0 1-3.157 3.157H4.766a3.157 3.157 0 0 1-3.156-3.157V4.766A3.157 3.157 0 0 1 4.766 1.61h6.467a3.157 3.157 0 0 1 3.157 3.156v6.467z" fill="#FC6733"/><path d="M8 3.861A4.143 4.143 0 0 0 3.862 8 4.143 4.143 0 0 0 8 12.138a4.143 4.143 0 0 0 4.139-4.139A4.143 4.143 0 0 0 8 3.861zm0 6.667a2.529 2.529 0 1 1 0-5.057 2.529 2.529 0 0 1 0 5.057zm4.147-5.644a.992.992 0 1 0 0-1.983.992.992 0 0 0 0 1.983z" fill="#FC6733"/></svg>
